X: 39728
T: Tha Fionnlaigh Ag Innearach
R: reel
M: 4/4
K: Amixolydian
|:a|deee feee|eeee edde|a2 ef edcc|BBcd eAA:|
|:a|eA ~A2 BAAe|ABBA GGGB|deed Bccc|BBcd eAA:|

